!!!COM:	Pierre de la Rue
**kern	**kern
*part2	*part1
*staff2	*staff1
*clefGv2	*clefG2
*k[]	*k[]
*M2/1	*M2/1
=1-	=1-
2.G	0r
4A	.
2B	.
2c	.
=2	=2
2G	0r
1c	.
2B	.
=3	=3
1c	2.g
.	4a
2r	2b
[2e	2cc
=4	=4
2e]	2g
4d	1cc
4c	.
1d	.
.	2b
=5	=5
2.c	0cc
4d	.
2e	.
2f	.
=6	=6
2c	2.a
1f	.
.	4b
.	1g
2e	.
=7	=7
4f	2f
4e	.
4d	2a
4c	.
1d	2b
.	[2dd
=8	=8
2.B	2dd]
.	4cc
4c	4b
1A	1cc
=9	=9
0G	2b
.	2g
.	2b
.	[2dd
=10	=10
2r	2dd]
2.g	4cc
.	4b
.	1cc
4e	.
2f	.
=11	=11
2.g	1b
4f	.
4e	2r
4d	.
4c	2g
4B	.
=12	=12
1A	2a
.	2cc
2r	2b
[2g	2g
=13	=13
4g]	2.a
4e	.
2f	.
.	4cc
2.g	1b
4f	.
=14	=14
4e	2r
4d	.
4c	2g
4B	.
1A	4a
.	4b
.	4cc
.	4a
=15	=15
1G	2b
.	2g
2r	2a
2g	2b
=16	=16
2e	2.cc
2.f	.
.	4b
.	4a
4e	4g
4d	4f
4c	4e
=17	=17
1B	1d
1c	2r
.	2g
=18	=18
2r	2a
2g	2b
2e	2.cc
[2f	.
.	4b
=19	=19
4f]	4a
4e	4g
4d	4f
4c	4e
4B	1d
4c	.
4d	.
4B	.
=20	=20
0c	0e
==	==
*-	*-
